public/svg/hands.svg

<?xml version="1.0" encoding="UTF-8"?>
<svg viewBox="0 0 168 182" xmlns="http://www.w3.org/2000/svg">
<path d="m161.84 94.85c-3.524-1.694-7.756-0.9688-10.512 1.806l-20.218 20.375c-1.45-0.313-2.982-0.275-4.45 0.137l-23.782 6.688c-10.113 2.843-17.175 12.168-17.175 22.675v31.968c0 1.725 1.3997 3.125 3.125 3.125h22.9c1.725 0 3.125-1.4 3.125-3.125v-17.282l26.857-13.381c0.543-0.269 0.993-0.688 1.306-1.213l22.775-38.843c2.688-4.538 0.806-10.65-3.949-12.931l-2e-3 6e-4zm-1.444 9.7743-22.3 38.044-27.75 13.824c-1.062 0.525-1.731 1.613-1.731 2.794v16.088h-16.65v-28.837c0-7.712 5.1875-14.569 12.625-16.656l23.782-6.687c1.712-0.519 3.55 0.687 3.8 2.481 0.181 1.312-0.493 2.569-1.694 3.144l-21.681 10.306c-1.556 0.737-2.219 2.606-1.476 4.162 0.731 1.556 2.606 2.219 4.163 1.476l21.675-10.306c3.675-1.744 5.762-5.625 5.194-9.65-0.219-1.6-0.863-3.1-1.825-4.356l19.239-19.387c0.887-0.894 2.237-1.1373 3.368-0.587 1.518 0.742 2.131 2.68 1.262 4.148l-1e-3 -1e-3z" fill="#008BE6"/>
<path d="m65.128 123.86-23.782-6.687c-1.4687-0.413-2.9935-0.45-4.4498-0.138l-20.218-20.375c-2.75-2.7746-6.9753-3.5188-10.512-1.806-4.75 2.3002-6.6373 8.3939-3.9498 12.931l22.78 38.837c0.3125 0.525 0.7623 0.944 1.306 1.212l26.857 13.382 7e-4 17.281c0 1.726 1.3997 3.125 3.125 3.125h22.9c1.7253 0 3.125-1.4 3.125-3.125v-31.961c0-10.507-7.0622-19.833-17.181-22.676zm10.931 51.512h-16.65v-16.087c0-1.181-0.6686-2.269-1.7312-2.794l-27.75-13.825-22.313-38.045c-0.86848-1.469-0.26888-3.419 1.2624-4.144 1.1497-0.5434 2.4876-0.306 3.3685 0.587l19.238 19.387c-0.9622 1.257-1.6061 2.75-1.8248 4.356-0.569 4.025 1.5189 7.907 5.194 9.65l21.675 10.306c1.5501 0.75 3.4251 0.087 4.1628-1.475 0.7435-1.556 0.0814-3.426-1.4753-4.163l-21.675-10.306c-1.194-0.575-1.875-1.832-1.694-3.144 0.25-1.781 2.0502-3.007 3.8002-2.481l23.782 6.687c7.431 2.087 12.625 8.944 12.625 16.657v28.833l0.0054 1e-3z" fill="#008BE6"/>
<path d="m86.21 78.431-5-5c-1.2187-1.2187-3.1998-1.2187-4.4186 0-1.125 1.125-1.1628 2.8627-0.2188 4.0872h-16.5c-1.1126 0-1.6627-0.7435-1.8436-1.0625-0.1875-0.3249-0.556-1.1751-0.0065-2.1315l6.0246-10.438c0.8685-1.4935 0.3561-3.4063-1.1439-4.2688-1.4876-0.8627-3.4063-0.3561-4.2688 1.1439l-6.0313 10.438c-1.5065 2.625-1.5065 5.7565 0.0065 8.3815 1.5123 2.625 4.2311 4.1875 7.2565 4.1875h16.5c-0.944 1.2252-0.9063 2.9686 0.2187 4.0871 0.6127 0.6127 1.4128 0.9128 2.2122 0.9128 0.8001 0 1.6003-0.306 2.2122-0.9128l5-5c1.207-1.1927 1.1883-3.2492 8e-4 -4.4244z" fill="#008BE6"/>
<path d="m96.14 44.45c1.4935-0.8627 2.0065-2.7689 1.1439-4.2689l-6.0246-10.438c-3.0247-5.25-11.488-5.25-14.512 0l-8.25 14.294c-0.5937-1.4251-2.125-2.2377-3.6496-1.8562-1.6752 0.4499-2.6629 2.1629-2.2122 3.8249l1.8313 6.8371v0.0065c0.431 1.5625 2.2565 2.6315 3.8249 2.2122l6.8371-1.8313c1.6752-0.4499 2.6629-2.1629 2.2122-3.8249-0.4186-1.5377-1.9063-2.4251-3.4375-2.2376l8.25-14.294c0.556-0.9616 1.4746-1.0742 1.8497-1.0742 0.375 0 1.2936 0.1126 1.8503 1.069l6.0247 10.438c0.8502 1.487 2.7622 1.9995 4.2622 1.1434z" fill="#008BE6"/>
<path d="m106.94 56.906c1.531 0.194 3.018-0.6998 3.437-2.2376 0.444-1.6687-0.544-3.375-2.212-3.8249l-6.837-1.8313c-1.794-0.5-3.1318 0.681-3.8316 2.2063l-1.8314 6.8314c-0.444 1.6751 0.5437 3.3815 2.2122 3.8313 0.2747 0.069 0.5436 0.1061 0.8125 0.1061 1.2565 0 2.3253-0.8248 2.8123-2.0065l8.275 14.344c0.556 0.9564 0.187 1.806 0 2.1315-0.181 0.319-0.731 1.0625-1.844 1.0625h-12.05c-1.7253 0-3.125 1.3997-3.125 3.125s1.3998 3.125 3.125 3.125h12.05c3.025 0 5.744-1.5625 7.257-4.1875 1.512-2.625 1.512-5.7565 0-8.3815l-8.25-14.294z" fill="#008BE6"/>
<path d="m141.63 72.606c16.493-16.5 16.493-43.343 0-59.832-7.994-8-18.618-12.4-29.913-12.4-10.294 0-20.026 3.6497-27.712 10.331-7.6875-6.6816-17.418-10.331-27.712-10.331-11.3 0-21.925 4.3997-29.913 12.394-16.494 16.494-16.494 43.337 0 59.832l55.413 55.414c0.6126 0.612 1.4128 0.913 2.2122 0.913 0.8001 0 1.6002-0.306 2.2121-0.913l55.412-55.408zm-110.83-4.4186c-14.056-14.062-14.056-36.937 0-50.993 6.8125-6.8125 15.863-10.562 25.493-10.562 9.6374 0 18.687 3.7565 25.5 10.562 1.1752 1.1752 3.25 1.1752 4.4187 0 6.8125-6.8125 15.863-10.562 25.5-10.562 9.632 0 18.682 3.7565 25.494 10.562 14.056 14.056 14.056 36.932 0 50.993l-53.2 53.2-53.205-53.2z" fill="#008BE6"/>
</svg>

<svg width="168" height="182" viewBox="0 0 168 182" fill="none" xmlns="http://www.w3.org/2000/svg">
<path d="M161.836 94.8497C158.312 93.1557 154.08 93.8809 151.324 96.6557L131.106 117.031C129.656 116.718 128.124 116.756 126.656 117.168L102.874 123.856C92.7614 126.699 85.6991 136.024 85.6991 146.531V178.499C85.6991 180.224 87.0988 181.624 88.8241 181.624H111.724C113.449 181.624 114.849 180.224 114.849 178.499V161.217L141.706 147.836C142.249 147.567 142.699 147.148 143.012 146.623L165.787 107.78C168.475 103.242 166.593 97.1305 161.838 94.8491L161.836 94.8497ZM160.392 104.624L138.092 142.668L110.342 156.492C109.28 157.017 108.611 158.105 108.611 159.286V175.374H91.9614V146.537C91.9614 138.825 97.1489 131.968 104.586 129.881L128.368 123.194C130.08 122.675 131.918 123.881 132.168 125.675C132.349 126.987 131.675 128.244 130.474 128.819L108.793 139.125C107.237 139.862 106.574 141.731 107.317 143.287C108.048 144.843 109.923 145.506 111.48 144.763L133.155 134.457C136.83 132.713 138.917 128.832 138.349 124.807C138.13 123.207 137.486 121.707 136.524 120.451L155.763 101.064C156.65 100.17 158 99.9267 159.131 100.477C160.649 101.219 161.262 103.157 160.393 104.625L160.392 104.624Z" fill="#008BE6"/>
<path d="M65.1279 123.863L41.3462 117.176C39.8775 116.763 38.3527 116.726 36.8964 117.038L16.678 96.6631C13.928 93.8885 9.70271 93.1443 6.16571 94.8571C1.41571 97.1573 -0.471622 103.251 2.21588 107.788L24.9959 146.625C25.3084 147.15 25.7582 147.569 26.3019 147.837L53.1585 161.219L53.1592 178.5C53.1592 180.226 54.5589 181.625 56.2842 181.625H79.1842C80.9095 181.625 82.3092 180.225 82.3092 178.5V146.539C82.3092 136.032 75.247 126.706 65.1279 123.863ZM76.0589 175.375H59.4092V159.288C59.4092 158.107 58.7406 157.019 57.678 156.494L29.928 142.669L7.61471 104.624C6.74623 103.155 7.34583 101.205 8.87708 100.48C10.0268 99.9366 11.3647 100.174 12.2456 101.067L31.4839 120.454C30.5217 121.711 29.8778 123.204 29.6591 124.81C29.0901 128.835 31.178 132.717 34.8531 134.46L56.5281 144.766C58.0782 145.516 59.9532 144.853 60.6909 143.291C61.4344 141.735 60.7723 139.865 59.2156 139.128L37.5406 128.822C36.3466 128.247 35.6656 126.99 35.8466 125.678C36.0966 123.897 37.8968 122.671 39.6468 123.197L63.4285 129.884C70.8595 131.971 76.0535 138.828 76.0535 146.541V175.374L76.0589 175.375Z" fill="#008BE6"/>
<path d="M86.2095 78.4313L81.2095 73.4313C79.9908 72.2126 78.0097 72.2126 76.7909 73.4313C75.6659 74.5563 75.6281 76.294 76.5721 77.5185H60.0721C58.9595 77.5185 58.4094 76.775 58.2285 76.456C58.041 76.1311 57.6725 75.2809 58.222 74.3245L64.2466 63.887C65.1151 62.3935 64.6027 60.4807 63.1027 59.6182C61.6151 58.7555 59.6964 59.2621 58.8339 60.7621L52.8026 71.1996C51.2961 73.8246 51.2961 76.9561 52.8091 79.5811C54.3214 82.2061 57.0402 83.7686 60.0656 83.7686H76.5656C75.6216 84.9938 75.6593 86.7372 76.7843 87.8557C77.397 88.4684 78.1971 88.7685 78.9965 88.7685C79.7966 88.7685 80.5968 88.4625 81.2087 87.8557L86.2087 82.8557C87.4157 81.663 87.397 79.6065 86.2095 78.4313Z" fill="#008BE6"/>
<path d="M96.1395 44.4497C97.633 43.587 98.146 41.6808 97.2834 40.1808L91.2588 29.7433C88.2341 24.4933 79.7711 24.4933 76.7464 29.7433L68.4964 44.037C67.9027 42.6119 66.3714 41.7993 64.8468 42.1808C63.1716 42.6307 62.1839 44.3437 62.6346 46.0057L64.4659 52.8428V52.8493C64.8969 54.4118 66.7224 55.4808 68.2908 55.0615L75.1279 53.2302C76.8031 52.7803 77.7908 51.0673 77.3401 49.4053C76.9215 47.8676 75.4338 46.9802 73.9026 47.1677L82.1526 32.874C82.7086 31.9124 83.6272 31.7998 84.0023 31.7998C84.3773 31.7998 85.2959 31.9124 85.8526 32.8688L91.8773 43.3063C92.7275 44.7933 94.6395 45.3058 96.1395 44.4497Z" fill="#008BE6"/>
<path d="M106.94 56.9063C108.471 57.1003 109.958 56.2065 110.377 54.6687C110.821 53 109.833 51.2937 108.165 50.8438L101.328 49.0125C99.534 48.5125 98.1962 49.6935 97.4964 51.2188L95.665 58.0502C95.221 59.7253 96.2087 61.4317 97.8772 61.8815C98.1519 61.9505 98.4208 61.9876 98.6897 61.9876C99.9462 61.9876 101.015 61.1628 101.502 59.9811L109.777 74.3248C110.333 75.2812 109.964 76.1308 109.777 76.4563C109.596 76.7753 109.046 77.5188 107.933 77.5188H95.883C94.1577 77.5188 92.758 78.9185 92.758 80.6438C92.758 82.3691 94.1578 83.7688 95.883 83.7688H107.933C110.958 83.7688 113.677 82.2063 115.19 79.5813C116.702 76.9563 116.702 73.8248 115.19 71.1998L106.94 56.9063Z" fill="#008BE6"/>
<path d="M141.628 72.6063C158.121 56.1063 158.121 29.263 141.628 12.7747C133.634 4.77467 123.01 0.375 111.715 0.375C101.421 0.375 91.6895 4.02467 84.0029 10.7063C76.3154 4.02467 66.5845 0.375 56.2912 0.375C44.991 0.375 34.3662 4.77467 26.3779 12.7688C9.88438 29.2623 9.88438 56.1055 26.3779 72.6005L81.7912 128.014C82.4038 128.626 83.204 128.927 84.0034 128.927C84.8035 128.927 85.6036 128.621 86.2155 128.014L141.628 72.6063ZM30.7962 68.1877C16.7402 54.1252 16.7402 31.251 30.7962 17.1943C37.6087 10.3818 46.6589 6.63183 56.2895 6.63183C65.9269 6.63183 74.9762 10.3883 81.7895 17.1943C82.9647 18.3695 85.0395 18.3695 86.2082 17.1943C93.0207 10.3818 102.071 6.63183 111.708 6.63183C121.34 6.63183 130.39 10.3883 137.202 17.1943C151.258 31.2503 151.258 54.126 137.202 68.1877L84.0015 121.388L30.7962 68.1877Z" fill="#008BE6"/>
</svg>
